icons/square-list-outline.svg

<svg xmlns="http://www.w3.org/2000/svg" width="24" height="24" viewBox="0 0 24 24">
  <path d="M19,2 C20.6568542,2 22,3.34314575 22,5 L22,5 L22,19 C22,20.6568542 20.6568542,22 19,22 L19,22 L5,22 C3.34314575,22 2,20.6568542 2,19 L2,19 L2,5 C2,3.34314575 3.34314575,2 5,2 L5,2 Z M19,4 L5,4 C4.44771525,4 4,4.44771525 4,5 L4,5 L4,19 C4,19.5522847 4.44771525,20 5,20 L5,20 L19,20 C19.5522847,20 20,19.5522847 20,19 L20,19 L20,5 C20,4.44771525 19.5522847,4 19,4 L19,4 Z M17,13 C17.5522847,13 18,13.4477153 18,14 C18,14.5128358 17.6139598,14.9355072 17.1166211,14.9932723 L17,15 L7,15 C6.44771525,15 6,14.5522847 6,14 C6,13.4871642 6.38604019,13.0644928 6.88337887,13.0067277 L7,13 L17,13 Z M17,9 C17.5522847,9 18,9.44771525 18,10 C18,10.5128358 17.6139598,10.9355072 17.1166211,10.9932723 L17,11 L7,11 C6.44771525,11 6,10.5522847 6,10 C6,9.48716416 6.38604019,9.06449284 6.88337887,9.00672773 L7,9 L17,9 Z"/>
</svg>

<svg xmlns="http://www.w3.org/2000/svg" viewBox="0 0 24 24">
  <path d="M19 2a3 3 0 0 1 3 3v14a3 3 0 0 1-3 3H5a3 3 0 0 1-3-3V5a3 3 0 0 1 3-3zm0 2H5a1 1 0 0 0-1 1v14a1 1 0 0 0 1 1h14a1 1 0 0 0 1-1V5a1 1 0 0 0-1-1zm-2 9a1 1 0 0 1 .12 2H7a1 1 0 0 1-.12-2H17zm0-4a1 1 0 0 1 .12 2H7a1 1 0 0 1-.12-2H17z"/>
</svg>
